X: 838
T: Condon's Frolics
N:"Collected by Cronin"
B:O'Neill's 838
Z:Transcribed by Dan G. Petersen, dangp@post6.tele.dk
M:6/8
L:1/8
K:A
g|ecA c2d|edc BAG|ABA c2d|e^de ef=g|
ecA c2d|edc BAG|ABA =gfg|ecA A2:|
d|eaa ef=g|dec BAG|cBc dcd|efe e z d|
eaa ef=g|dec BAG|ABA =gfg|ecA A2:|


